icons/shopping-basket.svg

<svg width="24" height="24" viewBox="0 0 24 24" fill="none" xmlns="http://www.w3.org/2000/svg">
<path fill-rule="evenodd" clip-rule="evenodd" d="M12 4C9.79086 4 8 5.79086 8 8V9H16V8C16 5.79086 14.2091 4 12 4ZM18 9V8C18 4.68629 15.3137 2 12 2C8.68629 2 6 4.68629 6 8V9H3C2.44772 9 2 9.44772 2 10C2 10.5523 2.44772 11 3 11H3.09501L4.00496 20.0995C4.05608 20.6107 4.48625 21 5 21H19C19.5138 21 19.9439 20.6107 19.995 20.0995L20.905 11H21C21.5523 11 22 10.5523 22 10C22 9.44772 21.5523 9 21 9H18ZM18.895 11H5.10499L5.90499 19H18.095L18.895 11ZM8 13C8.55228 13 9 13.4477 9 14V16C9 16.5523 8.55228 17 8 17C7.44772 17 7 16.5523 7 16V14C7 13.4477 7.44772 13 8 13ZM12 13C12.5523 13 13 13.4477 13 14V16C13 16.5523 12.5523 17 12 17C11.4477 17 11 16.5523 11 16V14C11 13.4477 11.4477 13 12 13ZM16 13C16.5523 13 17 13.4477 17 14V16C17 16.5523 16.5523 17 16 17C15.4477 17 15 16.5523 15 16V14C15 13.4477 15.4477 13 16 13Z" fill="black"/>
</svg>

<svg
  width="24"
  height="24"
  viewBox="0 0 24 24"
  xmlns="http://www.w3.org/2000/svg"
>
  <path
    fill-rule="evenodd"
    clip-rule="evenodd"
    d="M12 4a4 4 0 0 0-4 4v1h8V8a4 4 0 0 0-4-4zm6 5V8A6 6 0 0 0 6 8v1H3a1 1 0 0 0 0 2h.095l.91 9.1A1 1 0 0 0 5 21h14a1 1 0 0 0 .995-.9l.91-9.1H21a1 1 0 1 0 0-2h-3zm.895 2H5.105l.8 8h12.19l.8-8zM8 13a1 1 0 0 1 1 1v2a1 1 0 1 1-2 0v-2a1 1 0 0 1 1-1zm4 0a1 1 0 0 1 1 1v2a1 1 0 1 1-2 0v-2a1 1 0 0 1 1-1zm4 0a1 1 0 0 1 1 1v2a1 1 0 1 1-2 0v-2a1 1 0 0 1 1-1z"
  />
</svg>
